X:46
T: O WIE WOHL ISTS JEDEM MENSCHEN
N: E0660
O: Europa, Mitteleuropa, Deutschland, Hessen, Darmstadt,
R: Liebes - Lied
M: 3/4
L: 1/8
K: G
GA | B2B2GF | A2A2
BA | G3Bdc | B2z2
GA | B2B2GF | A2A2
BA | G3Bdc | B2z2
GA | B2B2Ac | B2d2
cB | A3ABA | G2z2
GA | B2B2Ac | B2d2
cB | A3ABA | G2z2

